X: 1
T: Denis Murphy's Polka
O: Ireland
R: polka
C: Denis Murphy
D: Planxty
Z: John Chambers <jc@trillian.mit.edu>
M: 2/4
L: 1/8
K: D
|: "D"f/g/f/e/ d/[e/c/]d/B/ | AD FA | "Em"GE e>d | "A7"cB BA |
|  "D"f/g/f/e/ d/[e/c/]d/B/ | AD FA | "Em"GE "A7"e>f |1 "D"ed de :|2 "D"ed d>B ||
|: "D"Af f/e/f | "G"Bg g/f/g | Af f/e/f/d/ | "Em"e/f/e/d/ "A7"cB |
|  "D"Af f/e/f | "G"Bg g/f/g/a/ | "A7"ba gc |1 ed "D"d>B :|2 ed "D"d2 |]
